src/icons/0068_hospital_a.svg

<svg data-name="Layer 1" xmlns="http://www.w3.org/2000/svg" viewBox="0 0 48 48"><path d="M36 11V0H12v11H5v37h16V36h6v12h16V11zM15 41h-4v-5h4zm0-12h-4v-5h4zm11 0h-4v-5h4zm5-15h-5v5h-4v-5h-5v-4h5V5h4v5h5zm6 27h-4v-5h4zm0-12h-4v-5h4z"/></svg>

<svg id="Layer_1" data-name="Layer 1" xmlns="http://www.w3.org/2000/svg" viewBox="0 0 48 48"><title>0068_hospital_a</title><path d="M36,11V0H12V11H5V48H21V36h6V48H43V11ZM15,41H11V36h4Zm0-12H11V24h4Zm11,0H22V24h4Zm5-15H26v5H22V14H17V10h5V5h4v5h5Zm6,27H33V36h4Zm0-12H33V24h4Z"/></svg>
